X:1
T:Title
%%score { ( 1 3 ) | 2 }
L:1/8
M:4/4
K:Ab
V:1 treble nm="Grand Piano"
V:3 treble 
V:2 bass 
V:1
 z4 z2[Q:1/4=96] [CE][CE] | [CA][CA][CA][DB] [Ec][Ec][EB][EA] | [FA][FA][EG]F E2 [CE][CE] | %3
 [CA][CA][CA][CA] [Ec]2 A2 | B6 z2 | [CA][CA][CA][DB] [Ec][Ec][EB][EA] |[M:3/4] [FA][FA] [EG]F E2 | %7
[M:1/4] cd |[M:4/4] eee[Fd] [Ec]2 [DEB]2 |[M:3/4] [CEA]6 |[M:1/4] cd |[M:4/4] eeee f2 e2 | c6 z2 | %13
 cccc d2 c2 |[M:9/8] B6- B z z |[M:4/4] AAAB ccBA |[M:3/4] [FA][FA] [EG]F E2 |[M:1/4] cd | %18
[M:4/4] eee[Fd] [Ec]2 [DEB]2 |[M:7/4] [CEA]6 z2 z2 z4 |] %20
V:2
 z4 z2 [A,,A,][A,,A,] | [A,,E,][A,,E,][A,,A,][A,,A,] [A,,A,][A,,A,][B,,G,][C,A,] | %2
 [D,A,][D,A,][D,A,][D,A,D] [A,C]2 [A,,A,][A,,A,] | [A,,E,][A,,E,][A,,E,][A,,E,] [A,,A,]2 [E,A,C]2 | %4
 [E,G,E]2 [B,,G,]2 [E,G,]2 [A,,A,][A,,A,] | %5
 [A,,E,][A,,E,][A,,A,][A,,A,] [A,,A,][A,,A,][B,,G,][C,A,] | %6
[M:3/4] [D,A,][D,A,] [D,A,][D,A,D] [A,C]2 |[M:1/4] [A,E][A,B,E] | %8
[M:4/4] [A,CE][A,CE][A,,CE][D,A,] [E,A,]2 E,2 |[M:3/4] A,,6 |[M:1/4][K:treble] [A,E][A,B,E] | %11
[M:4/4] [A,CE][A,CE][A,CA][A,CA] [A,DA]2 [A,CA]2 | [A,EA]2 [A,E]2 [A,E]2 [A,C][A,DA] | %13
 [A,EA][A,EA][A,EA][A,EA] [A,FA]2 [A,EA]2 |[M:9/8][K:bass] E,2 B,,- B,, [E,D]2- [E,D][A,C][A,C] | %15
[M:4/4] [A,CE][A,CE][A,CE][A,DE] [A,E][A,E][A,DE][A,CE] |[M:3/4] [D,D][D,D] [D,A,][D,A,D] [A,C]2 | %17
[M:1/4] [A,E][A,B,E] |[M:4/4] [A,CE][A,CE][A,,CE][D,A,] [E,A,]2 E,2 |[M:7/4] A,,6 z2 z2 z4 |] %20
V:3
 x8 | x8 | x8 | x8 | z2 =D2 _D2 [CE][CE] | x8 |[M:3/4] x6 |[M:1/4] x2 |[M:4/4] x8 |[M:3/4] x6 | %10
[M:1/4] x2 |[M:4/4] x8 | z2 A2 A2 AB | x8 |[M:9/8] [EG]2 [=DA]- [DA] G2- GEE |[M:4/4] x8 | %16
[M:3/4] x6 |[M:1/4] x2 |[M:4/4] x8 |[M:7/4] x14 |] %20

